!!!!SEGMENT: pl-wn--mus-iii-89-502--001_zelenski-wladyslaw--z-kantaty-jubileuszowej-do-slow-deotymy-elegia.krn
!!!cenid: 18xx:3759
!!!COM: Żeleński, Władysław
!!!COM-rismID: pe41024455
!!!CDT: 1837/07/06-1921/01/23
!!!CNT: Polish
!!!GTL: Z kantaty jubileuszowej do słów Deotymy
!!!OTL: Elegia
!!!PDT:
!!!AGN:
!!!SMS-siglum: PL-Wn
!!!SMS-shelfmark: Mus.III.89.502
!!!SMS-shelfwork: 001 G
!!!SMS-variant:
!!!SMS-altvar:
!!!NIFC-rismSourceID:
!!!NIFC-rismChildID:
!!!NIFC-islandoraID:
!!!URL-pdf-islandora:
!!!URL-scan: https://polona.pl/item/z-kantaty-jubileuszowej-do-slow-deotymy,ODMzNDMxMTA/0 @EN{Scan on Polona} @PL{Skany w portalu Polona}
!!!ONB-nifc: UWAGA: części: 1. Elegia, 2. Polonez, 3. Marsz jagielloński
!!!AIN: 2 piano
!!!key: f
**kern	**dynam	**kern	**dynam
*part2	*part2	*part1	*part1
*staff2	*	*staff1	*
*I"Piano.	*	*I"Piano.	*
*I'pf	*	*I'pf	*
*Ipiano	*	*Ipiano	*
*ICklav	*	*ICklav	*
*clefF4	*	*clefG2	*
*k[b-e-a-d-]	*	*k[b-e-a-d-]	*
*f:	*	*f:	*
*M3/4	*	*M3/4	*
=1	=1	=1	=1
*xywh-3:126,657,3862,1426	*	*xywh-3:126,657,3862,1426	*
!	!	!LO:TX:a:B:t=Andantino quasi alla Polacca.	!
(2.CC/ 2.C	.	4r	pp
.	.	(4c/ 4en	.
.	.	4dn/ 4f	<
=2	=2	=2	=2
*^	*	*	*
*	*xywh-3:126,657,3862,1426	*	*	*
[<2.C/	8CC\)	.	2en/) 2g	[[
.	8r	.	.	.
.	4c/	.	.	.
.	4Bn/	.	(>4f/ 4a-	.
=3	=3	=3	=3	=3
*	*	*	*^	*
*	*	*	*	*xywh-3:126,657,3862,1426	*
!	!	!	!LO:TX:b:i:t=poco cresc. - -  dolce:dur=4qe:ext=cd	!	!
2.C\_<	4B-X/	.	4.dd-/	2g-X\	.
.	4An/	.	.	.	.
.	.	.	8cc/	.	.
.	4A-X/	.	8bn/L	4f\	.
.	.	.	8ff/J	.	.
=4	=4	=4	=4	=4	=4
4.C\]	4.G/	.	4.b-X/) 4.gg	4en\	.
.	.	.	.	4ryy	.
8r	8ryy	.	(8dd-/L	.	.
4r	4ryy	.	8cc/	4ryy	.
.	.	.	8bn/J	.	.
!!LO:LB:g=original
=5	=5	=5	=5	=5	=5
*xywh-3:197,2076,3753,766	*xywh-3:197,2076,3753,766	*	*xywh-3:197,2076,3753,766	*xywh-3:197,2076,3753,766	*
8r	4r	.	4.b-X\)	2ryy	.
(8d-X/L	.	.	.	.	.
8c/	4r	.	.	.	.
8Bn/	.	.	(>8a-X/	.	.
8B-X/	[4C\	<	8g/L	4d-X\	.
8A-/J	.	.	8f/J	.	.
=6	=6	=6	=6	=6	=6
8G/L	2.C\_	[[	8en/L	2c\	.
8F/J	.	.	8f/J	.	.
8En/L	.	.	4g/	.	.
16Dn/L	.	>	.	.	.
16E/JJ	.	.	.	.	.
8F/L	.	.	8a-/L	4Bn\	.
8A-/J	.	.	8f/J	.	.
*	*	*	*v	*v	*
=7	=7	=7	=7	=7
4G/)	4.C\]	]]	4c/) 4en	.
4r	.	.	4r	.
.	8C\L	.	.	.
4r	8C\	.	4r	.
.	8C\J	.	.	.
*v	*v	*	*	*
=8	=8	=8	=8
*	*	*^	*
*	*	*	*xywh-3:197,2076,3753,766	*
8C/L	.	4r	4ryy	pp
8C/	.	.	.	.
8C/	.	[2c/	(4c\	.
8C/	.	.	.	.
8C/	.	.	4B-\	.
8C/J	.	.	.	.
*	*	*v	*v	*
=9	=9	=9	=9
8FF\L	.	8A-/) 8c]	.
8C\J 8A-	.	8r	.
8C\L 8A-	.	([4f^/	.
8C\ 8A-	.	.	.
8D-\ 8B-	.	16f/LL]	.
.	.	16g/	.
8D-\J 8B-	.	16d-/	.
.	.	16e-/JJ	.
!!LO:LB:g=original
=10	=10	=10	=10
*xywh-3:275,2788,3620,770	*	*xywh-3:275,2788,3620,770	*
8FF\L	.	8f/)	.
8C\J 8A-	.	8r	.
8C\L 8A-	.	([4f/	.
8C\ 8A-	.	.	.
8D-\ 8B-	.	16f/LL]	<
.	.	16g/	.
8D-\J 8B-	.	16d-/	.
.	.	16e-/JJ	.
=11	=11	=11	=11
8FF\L	.	8.f/L	.
8C\J 8A-	.	.	.
.	.	16g/Jk	.
8C\L 8A-	.	4a-/)	[
8C\ 8A-	.	.	.
8D-\ 8A-	.	(16g/LL	>
.	.	16f/	.
8D-\J 8A-	.	16e-/	.
.	.	16d-/JJ	.
=12	=12	=12	=12
8FF\L	.	2c/)	]]
8C\J 8A-	.	.	.
8C\L 8A-	.	.	.
8C\ 8A-	.	.	.
8C\ 8A-	.	([4c^>/	.
8C\J 8A-	.	.	.
=13	=13	=13	=13
!	!	!LO:TX:b:i:t=espr.	!
8EEn\L	.	16c/LL]	.
.	.	16Bn/	.
8C\J 8G	.	16d-/	.
.	.	16B/JJ	.
8C\L 8G	.	[4c/	.
8C\J 8G	.	.	.
8EE-X\L	.	16c/LL]	.
.	.	16B-X/	.
8C\J 8G-X	.	16An/	.
.	.	16c/JJ	.
!!LO:LB:g=original
=14	=14	=14	=14
*xywh-3:287,3538,3651,781	*	*xywh-3:287,3538,3651,781	*
8DD-\L	.	8f/)	.
8D-\J 8F	.	8r	.
8D-\L 8F	.	([4B-/	.
8D-\ 8F	.	.	.
8D-\ 8F	.	16B-/LL]	.
.	.	16A-X/	.
8D-\J 8F	.	16G/	.
.	.	16A-/JJ	.
=15	=15	=15	=15
8D-\L 8F	.	16B-/LL	<
.	.	(16An/	.
8D-\ 8F	.	16c/)	.
.	.	(16B-/JJ	.
8D-\ 8F	.	16d-/LL)	.
.	.	(16c/	.
8D-\J 8F	.	16e-/)	.
.	.	(16d-/JJ	.
8BB-\L	.	16g/LL)	.
.	.	16f/	.
8F\J 8G	.	16e-/	.
.	.	16d-/JJ	[[
=16	=16	=16	=16
*	*	*^	*
*	*	*	*xywh-3:287,3538,3651,781	*
8CC\L	.	8c/)	8ryy	.
8En\J 8G	.	8r	8c\L	<
!	!	!LO:TX:a:i:t=dolce.	!	!
8E\L 8G	.	[4cc/	8c\	.
(8E\ 8G	.	.	(>8c\	.
8F\) 8A-	.	16cc/LL]	8d-\)	.
.	.	16dd-/	.	.
(8F\J 8A-	.	16a-/	(8d-\J	.
.	.	16b-/JJ	.	.
=17	=17	=17	=17	=17
*	*	*	*^	*
*	*	*	*	*xywh-3:287,3538,3651,781	*
8G\L) 8B-	.	4r	8e-\L)	(4.cc\	[ >
8F\ (8A-	.	.	(8d-\J	.	.
8En\ 8G)	.	[2ccc/	8c\)	.	.
8C\J	.	.	8re	8b-\)	.
.	.	.	(<8qb-/	.	.
8C/L	.	.	8a-\L)	[<4c/ [4cc	.
8C/J	.	.	(8g\J	.	]
!!LO:LB:g=original
=18	=18	=18	=18	=18	=18
*xywh-3:279,4262,3655,1032	*	*xywh-3:279,4262,3655,1032	*xywh-3:279,4262,3655,1032	*xywh-3:279,4262,3655,1032	*
8FF\L	.	16ccc/LL]	8c\]	4f\) 4cc]	.
.	.	16bb-/	.	.	.
8C\J 8A-	.	16aa-/	8r	.	.
.	.	16gg/JJ	.	.	.
8C\L 8A-	.	8ff/	[4f\ [>4ff	4ryy	.
8C\ 8A-	.	8r	.	.	.
8D-\ 8B-	.	4rddyy	16f\LL] 16ff]	4ryy	.
.	.	.	(16g\ 16gg	.	.
8D-\J 8B-	.	.	16d-\ 16dd-	.	.
.	.	.	16e-\JJ 16ee-	.	.
*	*	*v	*v	*v	*
=19	=19	=19	=19
8FF\L	.	8f\) 8ff	.
8C\J 8A-	.	8r	.
8C\L 8A-	.	([4f\ [4ff	.
8C\ 8A-	.	.	.
8D-\ 8B-	.	16f\LL] 16ff]	<
.	.	16g\ 16gg	.
8D-\J 8B-	.	16d-\ 16dd-	.
.	.	16e-\JJ 16ee-	.
=20	=20	=20	=20
8FF\L	.	8.f\L 8.ff	.
8C\J 8A-	.	.	.
.	.	16g\Jk 16gg	[
8C\L 8A-	.	4a-\) 4aa-	.
8C\ 8A-	.	.	.
8D-\ 8A-	.	(16g\LL 16gg	>
.	.	16f\ 16ff	.
8D-\J 8A-	.	16e-\ 16ee-	.
.	.	16d-\JJ 16dd-	.
=21	=21	=21	=21
8AA-\L	.	2c/) 2cc	]]
!	!	!LO:TX:b:i:t=espr.	!
8E-\J 8A-	.	.	.
8E-\L 8A-	.	.	.
8E-\ 8A-	.	.	.
8E-\ 8A-	.	(4g-X\ 4gg-X	.
8E-\J 8A-	.	.	.
!!LO:PB:g=original
=22	=22	=22	=22
*	*	*^	*
*xywh-4:475,604,3788,1062	*	*xywh-4:475,604,3788,1062	*xywh-4:475,604,3788,1062	*
8DD-\L	.	[<4f\	8ff/)	.
8D-\J 8F	.	.	8ryy	.
8D-\L 8F	.	(16f\LL]	4ryy	<
.	.	16en\	.	.
8D-\ 8F	.	16g\	.	.
.	.	16f\JJ	.	.
8D-\ 8F	.	16b-\LL	4ryy	.
.	.	16a-\	.	.
8D-\J 8F	.	16g\	.	.
.	.	16f\JJ	.	[[
*	*	*v	*v	*
=23	=23	=23	=23
8C\L	.	[4e-/)	.
8A-\ 8c	.	.	.
8A-\ 8c	.	(16e-/LL]	.
.	.	16dn/	.
8A-\J 8c	.	16e-/	>
.	.	16en/JJ	.
8BB-\L	.	16g/LL	.
.	.	16f/	.
8F\J 8G	.	16e-X/	.
.	.	16d/JJ	.
=24	=24	=24	=24
8C\L	.	[2c/)	]]
8F\J 8A-	.	.	.
8F\L 8A-	.	.	.
8F\ 8A-	.	.	.
8F\ 8A-	.	(16c/LL]	.
.	.	16d-/	.
8F\J 8A-	.	16A-/	.
.	.	16B-/JJ	.
=25	=25	=25	=25
*^	*	*^	*
*	*	*	*	*^	*
*xywh-4:475,604,3788,1062	*xywh-4:475,604,3788,1062	*	*xywh-4:475,604,3788,1062	*xywh-4:475,604,3788,1062	*xywh-4:475,604,3788,1062	*
8CC/	4ryy	.	8c/)	4ryy	2ryy	.
8r	.	.	8r	.	.	.
8c/L	(2C\	<	[2cc/	(<8c\L 8en	.	.
8Bn/J	.	.	.	8dn\J 8f	.	.
[4B-X/	.	.	.	8g/L	[<4e\	.
.	.	.	.	(8qb-/	.	.
.	.	[[	.	8a-/J)	.	.
*	*	*	*	*v	*v	*
!!LO:LB:g=original
=26	=26	=26	=26	=26	=26
*xywh-4:504,1601,3678,886	*xywh-4:504,1601,3678,886	*	*xywh-4:504,1601,3678,886	*xywh-4:504,1601,3678,886	*
(4B-/]	[4F\)	.	2.cc/_	16e\LL]) 16g	.
.	.	.	.	(16a-\	.
.	.	.	.	16en\	.
.	.	.	.	16g\JJ	.
8A-/)	8F\L]	.	.	[4f\)	.
8ryy	([8F\ 8A-	.	.	.	.
4ryy	8F\]) 8G 8B-	.	.	16f\LL]	.
.	.	.	.	(16g\	.
.	8F\J 8G 8B-	.	.	16d-X\	.
.	.	.	.	16e-X\JJ	.
*v	*v	*	*	*	*
=27	=27	=27	=27	=27
8F\L 8A-	.	8cc/]	8f\)	.
8F\ 8A-	.	8r	8ryy	.
!	!	!	!	!LO:HP:b:i:t=dim.
8F\ 8A-	.	([4f^^/	4ryy	>
8F\ 8A-	.	.	.	.
8F\ 8G 8B-	.	16f/LL]	4ryy	.
.	.	16g/	.	.
8F\J 8G 8B-	.	16d-/	.	.
.	.	16e-/JJ	.	.
*	*	*v	*v	*
=28	=28	=28	=28
8FF/	.	[2.f/)	>
4C\ 4A-	.	.	.
4C\ 4A-	.	.	.
8C\ 8A-	.	.	]]
=29	=29	=29	=29
8FFF/	.	8f/]	.
8r	.	8r	.
!	!	!LO:TX:b:i:t=dolce	!
!	!	!LO:TX:a:i:t=a tempo	!
4r	.	(4f/ 4a-	.
4r	.	4g/ 4b-	.
=30	=30	=30	=30
8AA-\L	.	8a-\) 8cc	.
8E-\	.	8r	.
8c\	.	([4cc^\ [4ee-	.
8E-\	.	.	.
8d-\	.	16cc\LL] 16ee-]	.
.	.	16b-\ 16dd-	.
8E-\J	.	16f\ 16a-	.
.	.	16g\JJ 16b-	.
!!LO:LB:g=original
=31	=31	=31	=31
*xywh-4:524,2451,3691,915	*	*xywh-4:524,2451,3691,915	*
8AA-\L	.	8a-\) 8cc	.
8E-\	.	8r	.
8c\	.	([4cc\ [4ee-	.
8E-\	.	.	.
8d-\	.	16cc\LL] 16ee-]	.
.	.	16b-\ 16dd-	.
8E-\J	.	16f\ 16a-	.
.	.	16g\JJ 16b-	.
=32	=32	=32	=32
8AA-\L	.	8a-\L) 8cc	<
8E-\	.	(8cc\J 8ee-	.
8c\	.	8ee-\ 8gg	.
8E-\	.	4dd-\) 4ff	[
8AA-\	.	.	.
8E-\J	.	8b-'\ 8dd-	<
=33	=33	=33	=33
8AA-\L	.	(8g/ 8b-	.
8E-\	.	4f/ 4dd-	[
8d-\	.	.	.
8E-\	.	8en/L 8a-	>
8AA-\	.	8f/ 8dd-	.
8E-\J	.	8g/J 8bn	]]
=34	=34	=34	=34
8AA-\L	.	8a-\) 8cc	.
8E-\	.	8r	.
8c\	.	([4cc^\ [4ee-	.
8E-\	.	.	.
8d-\	.	16cc\LL] 16ee-]	.
.	.	16b-\ 16dd-	.
8E-\J	.	16f\ 16a-	.
.	.	16g\JJ 16b-	.
=35	=35	=35	=35
8AA-\L	.	8a-\) 8cc	.
8E-\	.	8r	.
8c\	.	([4cc\ [4ee-	.
8E-\	.	.	.
8d-\	.	16cc\LL] 16ee-]	<
.	.	16b-\ 16dd-	.
8E-\J	.	16f\ 16a-	.
.	.	16g\JJ) 16b-	.
!!LO:LB:g=original
=36	=36	=36	=36
*xywh-4:543,3354,3652,921	*	*xywh-4:543,3354,3652,921	*
8AA-\L	.	8a-\L 8cc	.
8E-\	.	(8cc\J 8ee-	.
8c\	.	8ee-\ 8gg	[
8E-\	.	4dd-\) 4ff	.
8AA-\	.	.	.
8E-\J	.	(8b-\ 8dd-	<
=37	=37	=37	=37
8AA-\L	.	8g/ 8b-	.
8E-\	.	4f/) 4dd-	[[
8d-\	.	.	.
8E-\	.	(8f-X/L 8a-	>
8AA-\	.	8.e-/ 8.cc	.
8E-\J	.	.	.
.	.	16d-/Jk 16g	.
=38	=38	=38	=38
*	*	*^	*
*	*	*	*xywh-4:543,3354,3652,921	*
8AA-\L	.	8d-/) 8b-	4ryy	.
8E-\	.	8r	.	]
8A-\	.	([4a-/	8c\	.
8c\J	.	.	8r	<
8A-\L 8B- 8d-	.	16a-/LL]	4ryy	.
.	.	16b-/	.	.
8A-\J 8B- 8d-	.	16f/	.	.
.	.	16g/JJ	.	[[
*	*	*v	*v	*
=39	=39	=39	=39
8A-\L 8c	.	2a-/)	.
!	!	!LO:TX:b:i:t=espr.	!
8A-\ 8c	.	.	.
8A-\ 8c	.	.	.
8A-\ 8c	.	.	.
8A-\ 8c	.	4g-X\ 4gg-X	.
8A-\J 8c	.	.	.
=40	=40	=40	=40
*^	*	*^	*
*	*xywh-4:543,3354,3652,921	*	*	*xywh-4:543,3354,3652,921	*
!LO:TX:a:i:t=poco	!	!	!	!	!
8D-\L	2D-/	.	[4ff/	[4f\	.
8A-\ 8B-	.	.	.	.	.
8A-\ 8B-	.	.	16ff/]	(16f\LL]	<
.	.	.	16r	16en\	.
8A-\J 8B-	.	.	8r	16g\	.
.	.	.	.	16f\JJ	.
8Dn\L	4D/	.	4r	16b-\LL	.
.	.	.	.	16a-\	.
8A-\J 8Bn	.	.	.	16g\	.
.	.	.	.	16f\JJ	.
*	*	*	*v	*v	*
!!LO:LB:g=original
=41	=41	=41	=41	=41
*xywh-4:458,4209,3733,1045	*xywh-4:458,4209,3733,1045	*	*xywh-4:458,4209,3733,1045	*
8E-\L	2E-/	.	[4e-/)	.
8A-\ 8c	.	.	.	.
8A-\ 8c	.	.	(16e-/LL]	.
.	.	.	16dn/	.
8A-\J 8c	.	.	16e-/	.
.	.	.	16en/JJ	.
8Dn\L	4D/	.	16f/LL	.
.	.	.	16e/	.
8A-\J 8B-X	.	.	16g/	.
.	.	.	16f/JJ	.
=42	=42	=42	=42	=42
8E-\L	2.E-/	.	[4e-X/)	.
8A-\ 8c	.	.	.	.
8A-\ 8c	.	.	(16e-/LL]	>
.	.	.	16dn/	.
8A-\J 8c	.	.	16e-/	.
.	.	.	16en/JJ	.
8G\L 8d-	.	.	16f/LL	.
.	.	.	16b-/	.
8G\J 8d-	.	.	16f/	.
.	.	.	16g/JJ	]]
*v	*v	*	*	*
=43	=43	=43	=43
8AA-\L	.	([2a-/)	.
8E-\ 8c	.	.	.
8E-\ 8c	.	.	.
8E-\ 8c	.	.	.
8E-\ 8d-	.	16a-/LL]	.
.	.	16b-/	.
8E-\J 8d-	.	16f/	.
.	.	16g/JJ	.
=44	=44	=44	=44
*^	*	*	*
8AA-\L	2ryy	.	8a-/)	.
(8G-X\ 8e-	.	.	8r	.
8F\ 8dn	.	.	[4a-/	.
8F-X\J) 8d-X	.	.	.	.
(8c/L	(4E-\	.	16a-/LL]	.
.	.	.	16b-/	.
8d-/J	.	.	16f/	.
.	.	.	16g/JJ	.
*v	*v	*	*	*
!!LO:PB:g=original
=45	=45	=45	=45
*	*	*^	*
*xywh-5:306,714,3627,1024	*	*xywh-5:306,714,3627,1024	*xywh-5:306,714,3627,1024	*
8A-\)) 8c	.	8a-/	4ryy	.
8r	.	8r	.	.
8r	.	[2c/	(4c\	.
8C/L	.	.	.	.
8C/	.	.	4B-\	.
8C/J	.	.	.	.
*	*	*v	*v	*
=46	=46	=46	=46
8FF\L	.	8A-/) 8c]	.
8C\J 8A-	.	8r	.
8C\L 8A-	.	([4f^/	.
8C\ 8A-	.	.	.
8D-\ 8B-	.	16f/LL]	.
.	.	16g/	.
8D-\J 8B-	.	16d-/	.
.	.	16e-/JJ	.
=47	=47	=47	=47
8FF\L	.	8f/)	.
8C\J 8A-	.	8r	.
8C\L 8A-	.	([4f/	.
8C\ 8A-	.	.	.
8D-\ 8B-	.	16f/LL]	<
.	.	16g/	.
8D-\J 8B-	.	16d-/	.
.	.	16e-/JJ	.
=48	=48	=48	=48
8FF\L	.	8.f/L	.
8C\J 8A-	.	.	.
.	.	16g/Jk	[
8C\L 8A-	.	4a-/)	.
8C\ 8A-	.	.	.
8D-\ 8A-	.	(16g/LL	>
.	.	16f/	.
8D-\J 8A-	.	16e-/	.
.	.	16d-/JJ	.
!!LO:LB:g=original
=49	=49	=49	=49
*xywh-5:306,1715,3635,801	*	*xywh-5:306,1715,3635,801	*
8FF\L	.	2c/)	]]
8C\J 8A-	.	.	.
8C\L 8A-	.	.	.
8C\ 8A-	.	.	.
8C\ 8A-	.	([4c^/	.
8C\J 8A-	.	.	.
=50	=50	=50	=50
!	!	!LO:TX:b:i:t=espr.	!
8EEn\L	.	16c/LL]	.
.	.	16Bn/	.
8C\J 8G	.	16d-/	.
.	.	16B/JJ	.
8C\L 8G	.	[4c/	.
8C\J 8G	.	.	.
8EE-X\L	.	16c/LL]	.
.	.	16B-X/	.
8C\J 8G-X	.	16An/	.
.	.	16c/JJ	.
=51	=51	=51	=51
8DD-\L	.	8f/)	.
8D-\J 8F	.	8r	.
8D-\L 8F	.	([4B-/	.
8D-\ 8F	.	.	.
8D-\ 8F	.	16B-/LL]	.
.	.	16A-X/	<
8D-\J 8F	.	16G/	.
.	.	16A-/JJ	.
=52	=52	=52	=52
8D-\L 8F	.	16B-/LL	.
.	.	(16An/	.
8D-\ 8F	.	16c/)	.
.	.	(16B-/JJ	.
8D-\ 8F	.	16d-/LL)	.
.	.	(16c/	.
8D-\J 8F	.	16e-/)	[
.	.	(16d-/JJ	.
8BB-\L	.	16g/LL)	.
.	.	16f/	.
8F\J 8G	.	16e-/	.
.	.	16d-/JJ	.
!!LO:LB:g=original
=53	=53	=53	=53
*	*	*^	*
*xywh-5:279,2470,3702,996	*	*xywh-5:279,2470,3702,996	*xywh-5:279,2470,3702,996	*
8CC\L	.	8c/)	8ryy	.
8En\J 8G	.	8r	8c\L	<
!	!	!LO:TX:a:i:t=dolce	!	!
8E\L 8G	.	[4cc/	8c\	.
(8E\ 8G	.	.	(>8c\	.
8F\) 8A-	.	16cc/LL]	8d-\)	.
.	.	16dd-/	.	.
(8F\J 8A-	.	16a-/	(8d-\J	[[
.	.	16b-/JJ	.	.
=54	=54	=54	=54	=54
*	*	*	*^	*
*	*	*	*	*xywh-5:279,2470,3702,996	*
8G\L) 8B-	.	4r	8e-\L)	4.cc\	.
8F\ (8A-	.	.	(8d-\J	.	.
!	!	!LO:TX:a:i:t=dolce	!	!	!
8En\ 8G)	.	([2ccc/	8c\)	.	>
8C\J	.	.	(<8b-\LL	8re	.
.	.	.	(<8qb-/	.	.
8C/L	.	.	8a-\)	[<4c/ [4cc	.
8C/J	.	.	8g\JJ	.	]
=55	=55	=55	=55	=55	=55
8FF\L	.	16ccc/LL]	8c\])	4f\) 4cc]	.
.	.	16bb-/	.	.	.
8C\J 8A-	.	16aa-/	8r	.	.
.	.	16gg/JJ	.	.	.
8C\L 8A-	.	(8ff/)	[4f\ [4ff	4ryy	.
8C\ 8A-	.	8r	.	.	.
8D-\ 8B-	.	4rddyy	16f\LL] 16ff]	4ryy	.
.	.	.	16g\ 16gg	.	.
8D-\J 8B-	.	.	16d-\ 16dd-	.	.
.	.	.	16e-\JJ 16ee-	.	.
*	*	*v	*v	*v	*
=56	=56	=56	=56
8FF\L	.	8f\) 8ff	.
8C\J 8A-	.	8r	.
8C\L 8A-	.	([4f^\ [4ff	.
8C\ 8A-	.	.	.
8D-\ 8B-	.	16f\LL] 16ff]	<
.	.	16g\ 16gg	.
8D-\J 8B-	.	16d-\ 16dd-	.
.	.	16e-\JJ 16ee-	.
!!LO:LB:g=original
=57	=57	=57	=57
*xywh-5:303,3439,3631,879	*	*xywh-5:303,3439,3631,879	*
8FF\L	.	8.f\L 8.ff	.
8C\J 8A-	.	.	.
.	.	16g\Jk 16gg	.
8C\L 8A-	.	4a-\) 4aa-	[
8C\ 8A-	.	.	.
8D-\ 8A-	.	(16g\LL 16gg	.
.	.	16f\ 16ff	.
8D-\J 8A-	.	16e-\ 16ee-	.
.	.	16d-\JJ 16dd-	.
=58	=58	=58	=58
!	!	!LO:TX:b:i:t=espr.	!
8AA-\L	.	2c/) 2cc	.
8E-\J 8A-	.	.	.
8E-\L 8A-	.	.	.
8E-\ 8A-	.	.	.
8E-\ 8A-	.	(4g-X\ (<4gg-X	.
8E-\J 8A-	.	.	.
=59	=59	=59	=59
*	*	*^	*
*	*	*	*xywh-5:303,3439,3631,879	*
8DD-\L	.	[4f\)	8ff/)	.
8D-\J 8F	.	.	8rgg	.
8D-\L 8F	.	(16f\LL]	4ryy	<
.	.	16en\	.	.
8D-\ 8F	.	16g\	.	.
.	.	16f\JJ	.	.
8D-\ 8F	.	16b-\LL	4ryy	.
.	.	16a-\	.	.
8D-\J 8F	.	16g\	.	.
.	.	16f\JJ	.	[[
*	*	*v	*v	*
=60	=60	=60	=60
8C\L	.	[4e-X/)	<
8A-\ 8c	.	.	.
8A-\ 8c	.	(16e-/LL]	.
.	.	16dn/	.
8A-\J 8c	.	16e-/	.
.	.	16en/JJ	.
8BB-\L	.	16g/LL	.
.	.	16f/	.
8F\J 8G	.	16e-X/	.
.	.	16d/JJ	.
!!LO:LB:g=original
=61	=61	=61	=61
*^	*	*^	*
*	*	*	*	*^	*
*xywh-5:299,4276,3678,1024	*xywh-5:299,4276,3678,1024	*	*xywh-5:299,4276,3678,1024	*xywh-5:299,4276,3678,1024	*xywh-5:299,4276,3678,1024	*
8CC/	4ryy	.	8c/)	4ryy	2ryy	.
8r	.	.	8r	.	.	.
(<8c/L	(2C\	.	[2cc/	(<8c\L 8en	.	.
8Bn/J	.	.	.	8dn\J 8f	.	.
4B-X/	.	.	.	8g/L	[<4e\	.
.	.	.	.	(8qb-/	.	.
.	.	.	.	8a-/J)	.	.
*	*	*	*	*v	*v	*
=62	=62	=62	=62	=62	=62
(4B-/)	[4F\)	.	2.cc/_	16e\LL]) 16g	.
.	.	.	.	(>16a-\	.
.	.	.	.	16en\	.
.	.	.	.	16g\JJ	.
8A-/)	8F\L]	.	.	[>4f\)	.
8ryy	8F\ 8A-	.	.	.	.
4ryy	8F\ 8G 8B-	.	.	16f\LL]	.
.	.	.	.	(16g\	.
.	8F\J 8G 8B-	.	.	16d-X\	.
.	.	.	.	16e-X\JJ	.
*v	*v	*	*	*	*
=63	=63	=63	=63	=63
8F\L 8A-	.	8cc/]	8f\)	.
8F\ 8A-	.	8r	8ryy	.
!	!	!	!	!LO:HP:b:i:t=dim.
8F\ 8A-	.	([4f/	4ryy	>
8F\ 8A-	.	.	.	.
8F\ 8G 8B-	.	16f/LL]	4ryy	.
.	.	16g/	.	.
8F\J 8G 8B-	.	16d-/	.	.
.	.	16e-/JJ	.	.
*	*	*v	*v	*
=64	=64	=64	=64
8FF/	.	[2.f/)	>
4C\ 4A-	.	.	.
4C\ 4A-	.	.	.
8C\ 8A-	.	.	.
=65	=65	=65	=65
8FFF/	.	8f/]	]]
8r	.	8r	.
4r	.	4r	.
4r	.	4r	.
==	==	==	==
*-	*-	*-	*-
!!!RDF**kern: < = below
!!!RDF**kern: > = above
!!!system-decoration: [(s1,s2)]
!!!ENC: Anastazja Marusiak
!!!END: 2022-03-24
!!!ENC: Urszula Świątek
!!!END: 2022-03-27
!!!IIIF: https://polona.pl/iiif/item/ODMzNDMxMTA/manifest.json
!!!ENC-iiif: Emilia Ziętek
!!!END-iiif: 2022-08-19
!!!YEC: Copyright 2022 Narodowy Instytut Fryderyka Chopina (https://polishscores.org)
!!!YEM: License CC-BY-4.0 (https://creativecommons.org/licenses/by/4.0)
